!!!OTL: Heimliche Liebe (66), S.199
!!!id: T0215
**kern
*clefG2
*k[b-]
*F:
{8f
=1
8f
4f
8f
=2yy
8g
=3
4a
4a
=4
4g
8a
8g
=5
4f}
4r
=6
{8a
8g
8a
8b-
=7
4cc
4cc
=8
8cc
8dd
8cc
8b-
=9
4a}
8r
=10
{8cc
=11
8cc
8cc
8dd
8cc
=12
4b-
8b-
8b-
=13
4a
8cc
8a
=14
4g}
8r
=15
{8c
=16
8f
8g
8a
8b-
=17
8cc
8ff
8dd
8b-
=18
4cc
8cc
8b-
=19
4a}
4r
==
*-
!!!minrhy: 8
!!!meters: 2/4 ]  ZZ[4
!!!cut: Heimliche Liebe (66), S.199
!!!reg: Luxemburg
!!!trd: Singendes Volk, Esch-Alzette 1937 posth.
!!!rhy1:   X_XX  X_X_  X_XX  X_0_
!!!rhy2: XXXX  X_X_  XXXX  X_0
!!!key: T0215  08  F 2/4 ]  ZZ[4
!!!mod: SECHSTONSKALA DUR ?]  AMBITUS[11
!!!kad: 1323
!!!akz: 1321_3553_5432_1553_
!!!fot: 'a__as"b__c__
!!!for: 'a__b__c__d__
!!!fok: '^__^__\__^a_
!! PHRAS[GEMISCHTTAKTIG]
!!!fkt: Liebeslieder
!!!bem: Mertert, hhh J.P. Kayser
!! THILL, Mathias:
!! PR[16] 2K[3] 2G[13] 3K[16] 3G[8] 4A[3] 4Ü[0] 5A[0] 6K[0] 6G[0]
!! 7K[0] 7G[0] 8A[0] MEHR[0] SI[42] ABS[38] SR[16] SP[26]
!! ST[15] 2k[8] 2g[18] 3k[8] 3g[5] 4d[0] 4ü[0] 5d[3] 6k[0] 6g[0]
!! 7k[0] 7g[0] 8d[0] mehr[0] si[42] dm[0] sr[26] sp[16]
!! 1F[54] 2F[46] 3F[0] 4F[0] LF[0] 2P[0] 3P[0] 4P[0] TRI[0] DF[2] AB[41]
!! TF[0] U3K[0] U3[0] U4[0] U4Ü[0] U5[8] U6K[0] U6[0] U7K[0] U7[3]
!! N1[13] N2K[0] N2[15] N3K[0] N3[23] N4[21] N4Ü[0] N5[15] N6K[0] N6[3]
!!!n7k: 0] N7[0] O1[0] O2K[0] O2[0] O3K[0] O3[0] HÖ[0
